src/resources/assets/headset.svg

<svg xmlns="http://www.w3.org/2000/svg" width="16" height="16"><path d="M 4 6 C 4 3.789062 5.789062 2 8 2 C 10.210938 2 12 3.789062 12 6 L 10 6 C 9.449219 6 9 6.449219 9 7 L 9 10 C 9 10.550781 9.449219 11 10 11 L 11 11 C 12.105469 11 13 10.105469 13 9 L 13 6 C 13 3.238281 10.761719 1 8 1 C 5.238281 1 3 3.238281 3 6 L 3 11 C 3 12.65625 4.34375 14 6 14 L 6.585938 14 C 6.792969 14.582031 7.347656 15 8 15 C 8.828125 15 9.5 14.328125 9.5 13.5 C 9.5 12.671875 8.828125 12 8 12 C 7.347656 12 6.792969 12.417969 6.585938 13 L 6 13 C 4.894531 13 4 12.105469 4 11 L 6 11 C 6.550781 11 7 10.550781 7 10 L 7 7 C 7 6.449219 6.550781 6 6 6 Z M 12 7 L 12 9 C 12 9.550781 11.550781 10 11 10 L 10 10 L 10 7 Z M 6 10 L 4 10 L 4 7 L 6 7 Z M 7.5 13.5 C 7.5 13.222656 7.722656 13 8 13 C 8.277344 13 8.5 13.222656 8.5 13.5 C 8.5 13.777344 8.277344 14 8 14 C 7.722656 14 7.5 13.777344 7.5 13.5 Z M 7.5 13.5" fill="#ddd"/></svg>

<svg xmlns="http://www.w3.org/2000/svg" width="16" height="16"><path d="M4 6c0-2.21 1.79-4 4-4s4 1.79 4 4h-2c-.55 0-1 .45-1 1v3c0 .55.45 1 1 1h1c1.105 0 2-.895 2-2V6A5 5 0 103 6v5a3 3 0 003 3h.586a1.5 1.5 0 100-1H6c-1.105 0-2-.895-2-2h2c.55 0 1-.45 1-1V7c0-.55-.45-1-1-1zm8 1v2c0 .55-.45 1-1 1h-1V7zm-6 3H4V7h2zm1.5 3.5c0-.277.223-.5.5-.5s.5.223.5.5-.223.5-.5.5a.498.498 0 01-.5-.5zm0 0" fill="#ddd"/></svg>
